X:366
T:Trip to Nenagh
Z: id:dc-reel-340
M:C
L:1/8
K:D Mixolydian
A|dcAG FDDC|A,DFA dcAG|Add^c d=fed|c2Gc EcGc|!
dcAG FDDC|A,DFA dcAG|Add2 AdFA|G2EG FDD:|!
A|d2fd adfa|gfed ^ceAc|d2AG FDAG|FGAB c2Bc|!
Add2 fdd2|^cdef g2fg|a2ea aged|^cAGE FDD:|!

